my_site/img/clients/fa-brands_pied-piper-hat.svg

<svg width="102" height="75" viewBox="0 0 102 75" fill="none" xmlns="http://www.w3.org/2000/svg">
<path d="M102 0.145752C89.1225 8.82826 87.7519 15.1296 86.6362 17.0572C85.5684 19.0334 84.7716 26.825 82.9228 30.5993C81.0581 34.4222 74.2847 37.4352 72.3881 38.6987C70.5234 39.9622 67.8778 44.8704 65.7103 49.0982C48.4819 48.3855 39.0309 55.3833 24.4003 64.2602C29.0859 62.6889 31.3012 61.555 31.3012 61.555C46.3144 55.7235 53.5022 50.4913 76.1016 53.5853C76.2769 53.5853 76.4044 53.6825 76.5478 53.7149C77.1694 54.0712 77.3925 54.8326 77.0419 55.4643L68.4516 70.9827C68.0531 71.744 67.2084 72.149 66.3637 71.9708C46.155 68.1155 30.2016 74.7732 15.5391 74.9838C3.84094 75.1619 0 69.5572 0 69.298C0 69.1198 0.095625 69.0226 0.270938 69.0226C0.270938 69.0226 6.375 69.0226 16.7025 66.5442C28.4325 43.8175 38.8875 35.8639 50.2669 35.8639C50.2669 35.8639 61.6941 35.8639 64.7062 45.8909C68.34 39.46 69.2166 37.9211 69.2166 37.9211C70.0612 36.3985 74.7947 25.4157 82.9866 15.0162C91.1944 4.64899 97.3941 2.0734 102 0.145752Z" fill="#737373"/>
</svg>

<svg width="102" height="75" fill="none" xmlns="http://www.w3.org/2000/svg"><path d="M102 .146C89.123 8.828 87.752 15.13 86.636 17.057c-1.068 1.976-1.864 9.768-3.713 13.542-1.865 3.823-8.638 6.836-10.535 8.1-1.865 1.263-4.51 6.171-6.678 10.4-17.228-.713-26.68 6.284-41.31 15.161 4.686-1.571 6.901-2.705 6.901-2.705 15.013-5.831 22.201-11.064 44.8-7.97.176 0 .303.097.447.13a1.28 1.28 0 01.494 1.75l-8.59 15.518a1.905 1.905 0 01-2.088.988c-20.209-3.856-36.162 2.802-50.825 3.013C3.841 75.162 0 69.557 0 69.298c0-.178.096-.275.27-.275 0 0 6.105 0 16.433-2.479 11.73-22.726 22.185-30.68 33.564-30.68 0 0 11.427 0 14.44 10.027 3.633-6.431 4.51-7.97 4.51-7.97.844-1.523 5.578-12.505 13.77-22.905C91.194 4.65 97.394 2.073 102 .146z" fill="#737373"/></svg>
